X:101
T:An Old Black Guard
B:Terry "Cuz" Teahan "Sliabh Luachra on Parade" 1980
Z:Patrick Cavanagh
M:4/4
L:1/8
R:Barndance
K:D
FA | B2A2 A2d/f/d | c2B2 B4 | BABc B2A2 | BAFA E2FA | 
B2A2 A2d/f/d | c2B2 B4 | BABc B2c2 | e2d2 d2 :| 
e2 | f4 fagf | e2B2 B4 | BABc B2A2 | BAFA E2FA | 
B2A2 A2d/f/d | c2B2 B4 | BABc B2c2 | e2d2 d2 :|| 

